{ "compressionlevel":-1,
 "height":12,
 "infinite":false,
 "layers":[
        {
         "data":[4, 4, 4, 4, 4, 4, 4, 4, 4, 4, 4, 4,
            4, 1, 1, 1, 1, 1, 1, 3, 10, 15, 13, 14,
            0, 2, 3, 3, 3, 3, 3, 3, 3, 3, 3, 3,
            0, 2, 2, 3, 3, 3, 3, 11, 0, 3, 0, 3,
            0, 2, 2, 2, 3, 3, 3, 0, 0, 3, 3, 3,
            0, 2, 2, 2, 0, 3, 3, 3, 0, 3, 3, 3,
            0, 2, 2, 2, 0, 2, 3, 3, 0, 3, 3, 3,
            0, 2, 2, 0, 0, 2, 2, 3, 3, 3, 0, 0,
            0, 2, 2, 2, 2, 2, 2, 2, 2, 3, 0, 0,
            0, 2, 2, 2, 2, 2, 2, 2, 2, 3, 0, 0,
            0, 0, 0, 0, 0, 2, 2, 2, 2, 2, 0, 0,
            0, 0, 0, 6, 0, 0, 0, 0, 0, 0, 0, 0],
         "height":12,
         "id":1,
         "name":"floor",
         "opacity":1,
         "type":"tilelayer",
         "visible":true,
         "width":12,
         "x":0,
         "y":0
        }, 
        {
         "data":[4, 4, 4, 4, 4, 5, 5, 5, 5, 5, 4, 4,
            4, 8, 10, 9, 4, 9, 8, 25, 4, 14, 15, 4,
            3221225475, 1610612739, 1610612739, 1610612739, 1610612739, 13, 33, 1610612739, 1610612739, 19, 20, 1610612739,
            3221225475, 1, 1, 1, 1, 1, 1, 1, 1, 1, 1, 3,
            3221225475, 1, 16, 32, 1, 1, 1, 1, 1, 1, 1, 3,
            3221225475, 1, 1, 1, 1, 1, 1, 1, 1, 1, 1, 3,
            3221225475, 1, 1, 1, 1, 1, 1, 1, 1, 1, 1, 3,
            3221225475, 1, 1, 1, 1, 1, 1, 1, 1, 1, 1, 3,
            3221225475, 1, 1, 1, 1, 1, 1, 1, 1, 1, 1, 3,
            3221225475, 1, 1, 1, 1, 1, 1, 1, 1, 1, 1, 3,
            3221225475, 1, 1, 1, 1, 1, 1, 1, 1, 1, 1, 3,
            2684354563, 2684354563, 2684354563, 0, 2684354563, 2684354563, 2684354563, 2684354563, 2684354563, 2684354563, 2684354563, 2684354563],
         "height":12,
         "id":2,
         "name":"walls",
         "opacity":1,
         "type":"tilelayer",
         "visible":true,
         "width":12,
         "x":0,
         "y":0
        }, 
        {
         "data":[0, 0, 0, 0, 0, 0, 0, 0, 0, 0, 0, 0,
            0, 0, 0, 0, 0, 0, 0, 0, 0, 0, 0, 0,
            0, 0, 0, 0, 0, 0, 0, 0, 0, 0, 0, 0,
            0, 0, 0, 0, 0, 0, 0, 0, 0, 0, 0, 0,
            0, 0, 0, 0, 0, 0, 0, 0, 0, 0, 0, 0,
            0, 0, 0, 0, 0, 0, 0, 0, 0, 0, 0, 0,
            0, 0, 0, 0, 0, 0, 0, 0, 0, 0, 0, 0,
            0, 0, 0, 0, 0, 0, 0, 0, 0, 0, 0, 0,
            0, 0, 0, 0, 0, 0, 0, 0, 0, 0, 0, 0,
            0, 0, 0, 0, 0, 0, 0, 0, 0, 0, 0, 0,
            0, 0, 0, 0, 0, 0, 0, 0, 0, 0, 0, 0,
            0, 0, 0, 0, 0, 0, 0, 0, 0, 0, 0, 0],
         "height":12,
         "id":3,
         "name":"collision",
         "opacity":0,
         "type":"tilelayer",
         "visible":false,
         "width":12,
         "x":0,
         "y":0
        }],
 "nextlayerid":4,
 "nextobjectid":1,
 "orientation":"orthogonal",
 "renderorder":"right-down",
 "tiledversion":"1.12.1",
 "tileheight":100,
 "tilesets":[
        {
         "columns":5,
         "firstgid":1,
         "image":"..\/tilesets\/tileset-kholi-a.png",
         "imageheight":400,
         "imagewidth":500,
         "margin":0,
         "name":"kholi-a",
         "spacing":0,
         "tilecount":20,
         "tileheight":100,
         "tilewidth":100
        }, 
        {
         "columns":5,
         "firstgid":21,
         "image":"..\/tilesets\/tileset-kholi-b.png",
         "imageheight":400,
         "imagewidth":500,
         "margin":0,
         "name":"kholi-b",
         "spacing":0,
         "tilecount":20,
         "tileheight":100,
         "tilewidth":100
        }],
 "tilewidth":100,
 "type":"map",
 "version":"1.10",
 "width":12
}